X: 1621
T: Annam Cara
R: jig
M: 6/8
K: Bminor
ABd ef2|~a2b f3|fed ABd|edc B2A|
ABd ef2|~a2b f3|fed ABd|edc B2A:|
|:BFA B2e|dAE ~F3|BFA B2e|def ~f3|
BFA B2e|dAE ~F3|BE/F/A Bdf|eaf edB:|
|:d3 e2d|BdB B2E|~F3 Adf|ede B2A|
d3 e2d|BdA B2A|~F3 Adf|1 dec B2A:|2 dec Bba||
|:f2a- afe|~e2d B2F|BFA de/d/B|def afb-|
baf a2f|ede B2A|Bdf edA|1 BFA Bba:|2 BFA B3||

